X:0630
T:Lary Grogan,
C:Irish.
M:6/8
L:1/8
Q:3/8=120
I: :: ::
Z:Jack Campin * www.campin.me.uk * 2009
K:D
a/g/| fdf fdf|ece ece|f/g/af gec   |ddd d2
a/g/| fdf fdf|ece efg|f/g/af gec   |ddd d2:|
z   |=c'3 bag|fga afd|d=c'c' b^c'd'|eee e3 |
     =c'3 bag|fga afd|f/g/af gec   |ddd d2:|
<end>
<start>
